X:1
T:Mazurka in C (1852)
T:Mazurka in C (1852)
T:Mikhail Glinka
T:Public Domain (PianoXML typeset)
C:Mikhail Glinka
Z:Public Domain (PianoXML typeset)
%%score { 1 | ( 2 3 ) }
L:1/8
Q:1/4=116
M:3/4
K:C
V:1 treble nm="Piano" snm="Pno."
V:2 bass 
V:3 bass 
V:1
"^Moderato"!mf! (Af) f4 | (c!4!f) (!tenuto!!3!f3 e) |!<(!{!4!e} (d^c!1!def^f!<)! | %3
!>(! !5!g!1!d e4)!>)! |!<(!{!4!c} (BA!4!Bcd^d!<)! |!>(! !5!eB c4)!>)! |!<(!{c} (BABdc!3!B!<)! | %7
!>(! Bc A4)!>)! |!mp! (cf) f4 | (c!4!f) (!tenuto!!3!f3 e) |!<(!{!4!e} (d^c!1!def^f!<)! | %11
!>(! !5!gd e4)!>)! |!<(!{!4!c} (BABcd^d!<)! |!>(! eB c4)!>)! |!<(!{!4!c} (BAB!5!dc!3!B!<)! | %15
!>(! Bc A4)!>)! |:!f! z (a [A^d]4) | z (^g [^GB]4) | z (.!3!B.A!>(!.!1!B.^c.^d | %19
 .!1!e.^f.^g.!1!a.^a.b)!>)! |!p! z (=a [A^d]4) | z (^g [^GB]4) | z!>(! (!5!gfA!2!Be | de c4)!>)! :| %24
V:2
 z2 z2!ped! ((([A,CF]2 | [A,CF]2)))!ped-up! z2!ped! (([_A,CF]2 | [A,B,F]2))!ped-up! z2 (([G,B,]2 | %3
 [G,B,]2)) z2!ped! [C,G,]2 | F,6!ped-up! | [E,^G,]2 z2!ped! [F,A,]2 | [D,A,]4!ped-up! [E,^G,]2 | %7
 z2 z2!ped! [A,CE]2!ped-up! | z2 z2!ped! (([A,CF]2 | [A,CF]2))!ped-up! z2!ped! (([_A,CF]2 | %10
 [A,B,F]2))!ped-up! z2 (([G,B,]2 | [G,B,]2)) z2!ped! [C,G,]2 | F,6!ped-up! | %13
 [E,^G,]2 z2!ped! [F,A,]2 | [D,A,]4!ped-up! [E,^G,]2 | z2 z2 [A,CE]2 |: %16
!ped! !>![^F,,^F,]2 z2 .B,2!ped-up! |!ped! !>![E,,E,]2 z2 .B,2!ped-up! | %18
!ped! B,,2 [A,B,^F]2!ped-up! z2 |!ped! E,,2 [^G,B,E]2!ped-up! z2 |!ped! B,,2 z2 .[A,B,]2!ped-up! | %21
!ped! E,2 z2 .[G,B,]2!ped-up! |!ped! (F,4 [G,B,]2)!ped-up! | z2 z2 [CEG]2 :| %24
V:3
 x6 | x6 | x6 | x4 (E2 | E2) D2 B,2 | x6 | F4 E2 | x6 | x6 | x6 | x6 | x2 z2 E2 | E2 D2 B,2 | x6 | %14
 F4 E2 | x6 |: x6 | x6 | x6 | x6 | x6 | x6 | z2 D2 G2 | x6 :| %24

